X:1
T:Praise the Name of Jesus
T:James M. Dungan
T:Praise the Name of Jesus
T:Public Domain
T:Public Domain
C:James M. Dungan
Z:Public Domain
%%score ( 1 2 ) ( 3 4 )
L:1/8
M:4/4
K:Bb
V:1 treble 
V:2 treble 
V:3 bass 
V:4 bass 
V:1
 [Fd]>[Ec] | [DB]2 F2 [EG]2 [EB]2 | [DF]>[EG] [DF]>[B,D] [DF]2 [B,D]>[CE] | %3
w: 1.~Praise the|name of Je- sus|His ten- der care, Watch- ing o’er|
w: 2.~For my|Sav- ior is my|ver- fail- ing friend, Thro’ the night|
w: 3.~Tho’ the|dark- ’ning sha- dows|a- bout me creep, And the way|
 [DF] [FB]3 [=EA]2 [EB]2 | [Ec]6 [Fd]>[Ec] | [DB]2 F2 [EG]2 [EB]2 | %6
w: me ev- ery day;|He will bear|my bur- dens, hear|
w: and thro’ the day;|On His love|I know I al-|
w: is lone and drear:|By my Sav-|ior’s side I’ll ev-|
 [DF]>[EG] [DF]>[B,D] [DF]2 [FB]>[Gc] | [Fd] [Fd]3 [Ec]2 [Ec]2 | [DB]6 ||"^Refrain" B>c | %10
w: fee- ble prayer, And will guide me|when I stray. All|the|way, all|
w: can de- pend, So I’ll praise Him|ev- ery day. *|||
w: close- ly keep, Sing- ing hap- py|songs of cheer. *|||
 (z2 F>F F2) c>B | z2 F>F F2 [DB]>[Ec] | [Fd]2 [Fd]2 [=Ed]2 [Ec]>[EB] | [Ec]6 [Fd]>[Ec] | %14
w: * * * the way,|* * * will praise|* name ev- ery day;|I am hap-|
w: ||||
w: ||||
 [DB]2 F2 [EG]2 [EB]2 | [DF]>[EG] [DF]>[B,D] [DF]2 [FB]>[Gc] | [Fd] [Fd]3 [Ec]2 [Ec]2 | [DB]6 |] %18
w: py in my bless-|Sav- ior’s love, And I’m sing- ing|all the way. *||
w: ||||
w: ||||
V:2
 x2 | x2 F2 x4 | x8 | x8 | x8 | x2 F2 x4 | x8 | x8 | x6 || x2 | d6 x2 | d6 x2 | x8 | x8 | %14
w: |for||||my|||||I|his|||
w: |ne-||||ways|||||||||
w: |round||||er|||||||||
 x2 F2 x4 | x8 | x8 | x6 |] %18
w: èd||||
w: ||||
w: ||||
V:3
 [B,,B,]>[B,,B,] | [B,,B,]2 [D,B,]2 [E,B,]2 [G,B,]2 | %2
w: ~ ~|~ ~ ~ ~|
 B,>B, [B,,B,]>[B,,F,] [B,,B,]2 [B,,F,]>[B,,F,] | [B,,B,] [B,,D]3 [C,C]2 [G,B,]2 | %4
w: ~ ~ ~ ~ ~ ~ ~|~ ~ ~ ~|
 [F,A,]6 [F,A,]>[F,A,] | [B,,B,]2 [D,B,]2 [E,B,]2 [G,B,]2 | %6
w: ~ ~ ~|~ ~ ~ ~|
 B,>B, [B,,B,]>[B,,B,] [B,,B,]2 [D,B,]>[E,B,] | [F,B,] [F,B,]3 [F,A,]2 [F,A,]2 | [B,,B,]6 || z2 | %10
w: ~ ~ ~ ~ ~ ~ ~|~ All the way,|all||
 z2 [B,,B,]>[B,,B,] [B,,B,]2 z2 | z2 [B,,B,]>[B,,B,] [B,,B,]2 [B,,B,]>[B,,B,] | %12
w: the way, *||
 [B,,B,]2 [B,,B,]2 [C,B,]2 [C,G,]>[C,B,] | [F,A,]6 [F,A,]>[F,A,] | %14
w: ||
 [B,,B,]2 [D,B,]2 [E,B,]2 [G,B,]2 | B,>B, [B,,B,]>[B,,B,] [B,,B,]2 [D,B,]>[E,B,] | %16
w: ||
 [F,B,] [F,B,]3 [F,A,]2 [F,A,]2 | [B,,B,]6 |] %18
w: ||
V:4
 x2 | x8 | B,>B, x6 | x8 | x8 | x8 | B,>B, x6 | x8 | x6 || x2 | x8 | x8 | x8 | x8 | x8 | B,>B, x6 | %16
w: ||~ ~||||~ ~||||||||||
 x8 | x6 |] %18
w: ||

